layout/bottom-panel/widgets/wifi/icons/wifi-strength-1.svg

<svg enable-background="new 0 0 24.00 24.00" height="240" viewBox="0 0 24 24" width="240" xmlns="http://www.w3.org/2000/svg"><path d="m12.0025 2.9978c-4.215.0097-8.30125 1.41595-11.626247 4.0047 4.037497 5.0575 7.514997 9.37 11.635047 14.4862 4.0674-5.0675 8.228-10.2537 11.6362-14.4862-3.33-2.59375-7.4263-4-11.645-4.0047zm0 2.0022c3.0712.015 6.0838.85875 8.71 2.45125l-5.1075 6.35755c-1.1275-.5275-2.3575-.8013-3.6025-.8113-1.25.005-2.48125.2787-3.61375.8063l-5.1175-6.36755c2.6375-1.58625 5.655-2.42625 8.73125-2.43625z" fill="#f4f4f7" stroke-linejoin="round" stroke-width=".2"/></svg>

﻿<?xml version="1.0" encoding="utf-8"?>
<!DOCTYPE svg PUBLIC "-//W3C//DTD SVG 1.1//EN" "http://www.w3.org/Graphics/SVG/1.1/DTD/svg11.dtd">
<svg xmlns="http://www.w3.org/2000/svg" xmlns:xlink="http://www.w3.org/1999/xlink" version="1.1" baseProfile="full"
	width="240" height="240" viewBox="0 0 24.00 24.00" enable-background="new 0 0 24.00 24.00" xml:space="preserve">
	<path fill="#f4f4f7" fill-opacity="1" stroke-width="0.2" stroke-linejoin="round"
		d="M 12.0025,2.9978C 7.7875,3.0075 3.70125,4.41375 0.376253,7.0025C 4.41375,12.06 7.89125,16.3725 12.0113,21.4887C 16.0787,16.4212 20.2393,11.235 23.6475,7.0025C 20.3175,4.40875 16.2212,3.0025 12.0025,2.9978 Z M 12.0025,5C 15.0737,5.015 18.0863,5.85875 20.7125,7.45125L 15.605,13.8088C 14.4775,13.2813 13.2475,13.0075 12.0025,12.9975C 10.7525,13.0025 9.52125,13.2762 8.38875,13.8038L 3.27125,7.43625C 5.90875,5.85 8.92625,5.01 12.0025,5 Z " />
</svg>
